X: 1
T: Out Behind The House
M: 6/8
L: 1/8
R: jig
K: Dmaj
|:f2 f faf|d2 d def|g2 g gbg|e2 e efg|
|f2 f faf|ded dcB|ABA GFE|D3 D3:|
|:A2 A ABc|ded dcd|e2 e ede|f3 f3|
|A2 A ABc|ded dcB|ABA GFE|D3 D3:|
